icons/react.svg

<!--
  - The MIT License (MIT)
  -
  - Copyright (c) 2015-2024 Elior "Mallowigi" Boukhobza
  -
  - Permission is hereby granted, free of charge, to any person obtaining a copy
  - of this software and associated documentation files (the "Software"), to deal
  - in the Software without restriction, including without limitation the rights
  - to use, copy, modify, merge, publish, distribute, sublicense, and/or sell
  - copies of the Software, and to permit persons to whom the Software is
  - furnished to do so, subject to the following conditions:
  -
  - The above copyright notice and this permission notice shall be included in all
  - copies or substantial portions of the Software.
  -
  - THE SOFTWARE IS PROVIDED "AS IS", WITHOUT WARRANTY OF ANY KIND, EXPRESS OR
  - IMPLIED, INCLUDING BUT NOT LIMITED TO THE WARRANTIES OF MERCHANTABILITY,
  - FITNESS FOR A PARTICULAR PURPOSE AND NONINFRINGEMENT. IN NO EVENT SHALL THE
  - AUTHORS OR COPYRIGHT HOLDERS BE LIABLE FOR ANY CLAIM, DAMAGES OR OTHER
  - LIABILITY, WHETHER IN AN ACTION OF CONTRACT, TORT OR OTHERWISE, ARISING FROM,
  - OUT OF OR IN CONNECTION WITH THE SOFTWARE OR THE USE OR OTHER DEALINGS IN THE
  - SOFTWARE.
  -
  -->

<svg  version="1.1" xmlns="http://www.w3.org/2000/svg" x="0px" y="0px" width="16px" height="16px"
     viewBox="0 0 512 512" preserveAspectRatio="xMidYMid meet">
  <path fill="#26A2C1" data-iconColor="React"
        d="M300.7026672,254.8256073c0-35.0435791-37.9459534-57.064743-68.1388092-39.5429382c-30.1928406,17.5217743-30.1928406,61.5641022,0.0000153,79.0858612C262.7567139,311.8903198,300.7026672,289.8691711,300.7026672,254.8256073z M404.7128601,170.6555023c30.0607605-143.6903687-36.072876-188.7814789-148.5000916-84.7713013C150.3989563-13.3162594,75.0466537,17.9469166,107.1114731,170.0542908C-40.749897,214.6295471-30.9532928,298.539856,108.3139038,341.4005432c-31.8643951,140.0830994,27.6558838,191.1863708,147.8988647,85.3725281c116.6357117,104.6113892,178.5369263,55.6321106,146.6964417-85.9737244C554.8162231,289.2951965,541.1886597,214.7445526,404.7128601,170.6555023z M384.2715454,165.2445679c-23.8307495-5.375412-46.8896179-9.2882996-70.3421326-11.4230804c-12.3563232-18.0675659-26.7483521-36.115387-43.2874756-52.9069061C360.7797852,14.4541903,413.9045715,41.4697456,384.2715454,165.2445679z M151.6013794,282.4814758c8.918045,19.0384521,20.6417389,36.4736938,29.4595337,51.1032715c-14.3586273-1.4685364-29.8273621-3.6986389-46.2935486-6.6133423C140.0435486,312.2022095,145.6609344,297.3711853,151.6013794,282.4814758z M150.3989563,230.7770081c-6.5595093-15.7457123-12.5452271-30.9425354-17.4352417-45.0911255c16.9986267-3.5235443,33.6560059-6.7227173,48.0971985-7.8157959C170.3130951,194.7540894,160.1044769,212.4068451,150.3989563,230.7770081z M163.0244598,257.2304688c14.7019501-29.4436951,30.2539062-57.3918915,47.4959869-82.3664551c30.5939941-1.7593842,60.8627319-1.6035156,90.7834473,0.6012115c16.781189,23.3826599,32.4436035,51.329834,47.4959717,81.7652435c-11.2641907,23.2770996-27.2587585,50.103241-45.6923218,78.7591553c-30.7770996,2.3305664-62.3356171,2.0082397-94.3907471,0C192.4701996,311.0995178,177.2120972,284.8831787,163.0244598,257.2304688z M360.2229614,282.4814758c5.8381348,14.1664429,11.2332153,28.6053467,16.2327881,43.2874756c-15.4307861,3.2492371-30.652771,5.6168823-45.6923218,7.2145996C341.0576782,317.0340271,350.8233337,300.098938,360.2229614,282.4814758z M330.7634277,177.8700867c16.3929443,2.2440643,32.2282715,5.046402,47.4959717,8.4170074c-5.107666,15.1780396-10.9108887,30.0122375-17.4352112,44.4899139C351.5182495,212.422699,341.526947,194.7579803,330.7634277,177.8700867z M284.4698792,151.416626c-18.7246399-0.7345581-37.7732086-0.7109985-57.1154175,0c8.4677277-11.1366272,17.9058075-22.7698364,28.2570953-34.8704605C265.6993713,127.435112,275.2571106,139.155426,284.4698792,151.416626z M241.1824036,100.9145813c-16.5391388,16.7915192-30.9311523,34.2381287-43.2874756,52.3056946c-23.4525146,2.1347809-47.1125183,6.0476685-70.9433594,11.4230804C98.6944656,38.9894409,151.0445709,14.4541903,241.1824036,100.9145813z M113.7248383,321.5604553c-125.2531357-37.676178-119.2409821-96.3948212-1.2024307-131.0648499c7.2205963,21.9109497,15.9619217,44.1636047,25.8522415,65.5324097C128.7643127,278.1272278,120.2563705,300.8252869,113.7248383,321.5604553z M129.3564301,346.8114929c21.2429504,5.2105103,43.7547455,7.711853,67.3360748,10.2206421c14.188797,20.0240784,28.8825989,38.6404724,44.4898987,54.7105713C149.3969421,499.7204285,98.229538,467.7562256,129.3564301,346.8114929z M255.611557,396.7123108c-10.8765411-11.2629395-21.0314331-24.0250854-30.6619568-37.8765259c21.4670105,0.452301,42.2002716,0.5025024,61.9251251,0C277.3218689,372.3880005,266.8888245,385.0007324,255.611557,396.7123108z M270.6419373,411.7427063c16.7466125-18.195282,31.5098267-36.6409607,44.4898987-55.3117981c22.1543274-1.6300659,44.5992737-5.033905,67.3360901-10.2206421C413.8760376,474.9438171,356.8478088,493.9532471,270.6419373,411.7427063z M397.498291,320.3580322c-6.440094-20.7351685-14.5727844-42.2308044-24.0486145-64.3300171c9.7519226-21.3688049,18.1315613-43.0202484,25.2510376-64.9311981C513.9336548,225.9672852,523.1522217,281.6798401,397.498291,320.3580322z"/>
</svg>

<svg xmlns="http://www.w3.org/2000/svg" viewBox="0 0 512 512"><path fill="#26a2c1" d="M300.703 254.826c0-35.044-37.946-57.065-68.14-39.543-30.192 17.521-30.192 61.564 0 79.086 30.194 17.521 68.14-4.5 68.14-39.543m104.01-84.17c30.06-143.69-36.073-188.782-148.5-84.772-105.814-99.2-181.166-67.937-149.102 84.17-147.86 44.576-138.064 128.486 1.203 171.347-31.864 140.083 27.656 191.186 147.899 85.372C372.848 531.384 434.75 482.405 402.909 340.8c151.907-51.504 138.28-126.054 1.804-170.143m-20.441-5.411c-23.831-5.376-46.89-9.289-70.343-11.424-12.356-18.067-26.748-36.115-43.287-52.906 90.138-86.46 143.263-59.445 113.63 64.33M151.602 282.48c8.917 19.039 20.641 36.474 29.459 51.104-14.359-1.469-29.827-3.699-46.294-6.614a1307 1307 0 0 1 16.834-44.49m-1.203-51.704c-6.56-15.746-12.545-30.943-17.435-45.091 16.998-3.524 33.656-6.723 48.097-7.816-10.748 16.884-20.957 34.537-30.662 52.907m12.625 26.453c14.702-29.443 30.254-57.391 47.496-82.366 30.594-1.76 60.863-1.604 90.784.601 16.781 23.383 32.443 51.33 47.496 81.765-11.264 23.278-27.259 50.104-45.692 78.76-30.778 2.33-62.336 2.008-94.391 0-16.247-24.89-31.505-51.107-45.693-78.76m197.199 25.251c5.838 14.167 11.233 28.606 16.233 43.288a455 455 0 0 1-45.693 7.215c10.295-15.95 20.06-32.885 29.46-50.503m-29.46-104.61c16.393 2.243 32.229 5.045 47.496 8.416a484 484 0 0 1-17.435 44.49c-9.306-18.354-19.297-36.019-30.06-52.907m-46.293-26.454c-18.725-.735-37.773-.711-57.116 0 8.468-11.137 17.906-22.77 28.258-34.87 10.087 10.888 19.645 22.608 28.858 34.87m-43.288-50.502c-16.539 16.791-30.93 34.238-43.287 52.305-23.453 2.135-47.113 6.048-70.943 11.423-28.258-125.654 24.093-150.189 114.23-63.728M113.725 321.56c-125.253-37.676-119.241-96.394-1.203-131.064 7.221 21.91 15.962 44.163 25.853 65.532-9.61 22.1-18.119 44.797-24.65 65.532m15.631 25.251c21.243 5.211 43.755 7.712 67.337 10.221 14.188 20.024 28.882 38.64 44.49 54.71-91.786 87.978-142.953 56.014-111.827-64.93m126.256 49.901c-10.877-11.263-21.032-24.025-30.662-37.876 21.467.452 42.2.502 61.925 0a322 322 0 0 1-31.263 37.876m15.03 15.03c16.747-18.195 31.51-36.64 44.49-55.311 22.154-1.63 44.6-5.034 67.336-10.22 31.408 128.733-25.62 147.742-111.826 65.532m126.856-91.384c-6.44-20.735-14.572-42.23-24.048-64.33a611 611 0 0 0 25.25-64.931c115.234 34.87 124.452 90.583-1.202 129.261" data-iconColor="React"/></svg>
